icons/svg/16x16/reject squircle/outline.svg

<svg width="16" height="16" fill="none" xmlns="http://www.w3.org/2000/svg">
  <path fill-rule="evenodd" clip-rule="evenodd" d="M10.707 6.707L9.414 8l1.293 1.293a.999.999 0 11-1.414 1.414L8 9.414l-1.293 1.293a.997.997 0 01-1.414 0 .999.999 0 010-1.414L6.586 8 5.293 6.707a.999.999 0 111.414-1.414L8 6.586l1.293-1.293a.999.999 0 111.414 1.414zm1.947 4.542a1.835 1.835 0 01-1.405 1.405C10.189 12.884 9.096 13 8 13s-2.189-.116-3.25-.346a1.838 1.838 0 01-1.405-1.405 15.422 15.422 0 010-6.499A1.838 1.838 0 014.75 3.346 15.364 15.364 0 018 3c1.096 0 2.189.116 3.249.346a1.835 1.835 0 011.405 1.405C12.884 5.811 13 6.904 13 8s-.116 2.188-.346 3.249zm1.955-6.921a3.83 3.83 0 00-2.937-2.937A17.357 17.357 0 008 1c-1.26 0-2.488.135-3.672.391a3.828 3.828 0 00-2.937 2.937A17.357 17.357 0 001 8c0 1.26.135 2.488.391 3.672a3.83 3.83 0 002.937 2.937C5.512 14.865 6.74 15 8 15c1.26 0 2.488-.135 3.672-.391a3.83 3.83 0 002.937-2.937C14.865 10.488 15 9.26 15 8c0-1.26-.135-2.488-.391-3.672z" fill="#000"/>
</svg>

<svg xmlns="http://www.w3.org/2000/svg" width="16" height="16" viewBox="0 0 16 16">
  <path fill-rule="evenodd" d="M10.707,6.707 L9.414,8 L10.707,9.293 C11.098,9.684 11.098,10.316 10.707,10.707 C10.512,10.902 10.256,11 10,11 C9.744,11 9.488,10.902 9.293,10.707 L8,9.414 L6.707,10.707 C6.512,10.902 6.256,11 6,11 C5.744,11 5.488,10.902 5.293,10.707 C4.902,10.316 4.902,9.684 5.293,9.293 L6.586,8 L5.293,6.707 C4.902,6.316 4.902,5.684 5.293,5.293 C5.684,4.902 6.316,4.902 6.707,5.293 L8,6.586 L9.293,5.293 C9.684,4.902 10.316,4.902 10.707,5.293 C11.098,5.684 11.098,6.316 10.707,6.707 M12.654,11.249 C12.503,11.951 11.951,12.503 11.249,12.654 C10.189,12.884 9.096,13 8,13 C6.904,13 5.811,12.884 4.75,12.654 C4.049,12.503 3.497,11.951 3.345,11.249 C3.116,10.189 3,9.096 3,8 C3,6.903 3.116,5.811 3.345,4.75 C3.497,4.049 4.049,3.497 4.75,3.346 C5.811,3.116 6.904,3 8,3 C9.096,3 10.189,3.116 11.249,3.346 C11.951,3.497 12.503,4.049 12.654,4.751 C12.884,5.811 13,6.904 13,8 C13,9.096 12.884,10.188 12.654,11.249 M14.609,4.328 C14.291,2.856 13.144,1.709 11.672,1.391 C10.488,1.135 9.26,1 8,1 C6.74,1 5.512,1.135 4.328,1.391 C2.856,1.708 1.709,2.856 1.391,4.328 C1.135,5.512 1,6.74 1,8 C1,9.26 1.135,10.488 1.391,11.672 C1.709,13.144 2.856,14.291 4.328,14.609 C5.512,14.865 6.74,15 8,15 C9.26,15 10.488,14.865 11.672,14.609 C13.144,14.291 14.291,13.144 14.609,11.672 C14.865,10.488 15,9.26 15,8 C15,6.74 14.865,5.512 14.609,4.328"/>
</svg>
